packages/icons/svg/Outline/volume.svg

<svg fill="none" height="24" viewBox="0 0 24 24" width="24" xmlns="http://www.w3.org/2000/svg"><path clip-rule="evenodd" d="m6.00002 14.4286h4.33298c.202 0 .399.062.566.175l5.101 3.498v-12.20298l-5.101 3.498c-.167.113-.364.175-.566.175h-4.33298zm10.99998 6.5711c-.198 0-.396-.058-.565-.175l-6.412-4.396h-5.023c-.552 0-1-.447-1-1v-6.85705c0-.553.448-1 1-1h5.023l6.412-4.397c.305-.21.702-.233 1.031-.059.328.172.534.513.534.884v16.00005c0 .371-.206.712-.534.885-.146.077-.306.115-.466.115z" fill="#6b7280" fill-rule="evenodd"/></svg>

<svg width="24" height="24" viewBox="0 0 24 24" fill="none" xmlns="http://www.w3.org/2000/svg">
<g id="Icon/Outline/volume">
<path id="Mask" fill-rule="evenodd" clip-rule="evenodd" d="M6 14.4287H10.333C10.535 14.4287 10.732 14.4907 10.899 14.6037L16 18.1017V5.8987L10.899 9.3967C10.732 9.5097 10.535 9.5717 10.333 9.5717H6V14.4287ZM17 20.9997C16.802 20.9997 16.604 20.9417 16.435 20.8247L10.023 16.4287H5C4.448 16.4287 4 15.9817 4 15.4287V8.5717C4 8.0187 4.448 7.5717 5 7.5717H10.023L16.435 3.1747C16.74 2.9647 17.137 2.9417 17.466 3.1157C17.794 3.2877 18 3.6287 18 3.9997V19.9997C18 20.3707 17.794 20.7117 17.466 20.8847C17.32 20.9617 17.16 20.9997 17 20.9997Z" fill="#000000"/>
</g>
</svg>
